X: 41255
T: Tsizik Polkka
R: polka
M: 2/4
K: Bminor
e|:fb ag|fe dB|ce eg|fe f2|
fb bf|gf ed|cg fe|dc B2:|
|:f2 fe/f/|gf ed|ce eg|fe fB|
f2 fe/f/|gf ed|cg fe|dc B2:|

